assets/images/vue_js.svg

<svg height="661.371pt" width="690.4pt" xmlns="http://www.w3.org/2000/svg"><path d="m862 34.082c0 43.3543-189.189 124-427.5 124s-434.5-75.6457-434.5-119c0-43.3544 196.189-38.00004 434.5-38.00004s427.5-10.35435 427.5 33.00004z" fill="#3f3d56" transform="translate(0 668.632)"/><path d="m862 34.082c0 43.3543-189.189 124-427.5 124s-434.5-75.6457-434.5-119c0-43.3544 196.189-38.00004 434.5-38.00004s427.5-10.35435 427.5 33.00004z" opacity=".1" transform="translate(0 668.632)"/><ellipse cx="345.2pt" cy="62.8pt" fill="#3f3d56" rx="345.2pt" ry="62.8pt" transform="translate(0 628.714)"/><path d="m0 0v209.944l35.117 57.231 2.673 4.353h138.563l2.799-271.528z" fill="#2f2e41" transform="translate(594.859 440.238)"/><path d="m0 0v209.944l35.117 57.231 2.155-267.175z" opacity=".1" transform="translate(594.859 440.238)"/><path d="m179.153 0v209.944l-35.117 57.231-2.673 4.353h-138.564l-2.799-271.528z" fill="#2f2e41" transform="translate(81.195 434.639)"/><path d="m37.273 0v209.944l-35.117 57.231-2.156-267.175z" opacity=".1" transform="translate(223.075 434.639)"/><path d="m753 41.988v12.597h-753v-18.195l69.981-36.39h621.435z" fill="#2f2e41" transform="translate(63 388.452)"/><path d="m753 5.598v12.597h-753v-18.195z" opacity=".1" transform="translate(63 424.842)"/><path d="m47.587 9.798h-33.591l-13.996-9.798h62.983z" opacity=".1" transform="translate(123.184 483.626)"/><path d="m47.587 9.798h-33.591l-13.996-9.798h62.983z" opacity=".1" transform="translate(123.184 524.215)"/><path d="m47.587 9.798h-33.591l-13.996-9.798h62.983z" opacity=".1" transform="translate(123.184 581.6)"/><path d="m47.587 9.797h-33.591l-13.996-9.797h62.983z" opacity=".1" transform="translate(123.184 638.985)"/><path d="m15.396 9.797h33.591l13.996-9.797h-62.983z" opacity=".1" transform="translate(669.039 489.225)"/><path d="m15.396 9.797h33.591l13.996-9.797h-62.983z" opacity=".1" transform="translate(669.039 529.814)"/><path d="m15.396 9.797h33.591l13.996-9.797h-62.983z" opacity=".1" transform="translate(669.039 587.199)"/><path d="m15.396 9.798h33.591l13.996-9.798h-62.983z" opacity=".1" transform="translate(669.039 644.583)"/><path d="m17.2509 1.79558-4.6687 29.80752s-22.9841 12.2103-6.82346 12.5695c16.16076.3591 92.29556 0 92.29556 0s14.7247 0-8.619-12.9286l-4.6686-31.244z" fill="#3f3d56" transform="translate(515.265 351.631)"/><path d="m2.50284 43.8491c3.13881-2.5376 6.51219-4.7705 10.07446-6.6685l4.6686-29.80753 67.5158.06351 4.6687 29.38492c3.836 1.9798 7.4522 4.3593 10.7886 7.0988 2.998-.684 6.274-3.2261-10.7886-12.6763l-4.6687-31.244-67.5158 1.79564-4.6687 29.80746s-19.31334 10.2615-10.07436 12.246z" opacity=".1" transform="translate(515.27 351.631)"/><rect fill="#3f3d56" height="169.5078pt" rx="8.55584pt" width="243.344256pt" x="413.824" y="145.672"/><rect fill="#f2f2f2" height="126.9872pt" width="226.968072pt" x="424.059" y="156.984"/><circle cx="1.436504pt" cy="1.436504pt" fill="#f2f2f2" r="1.436504pt" transform="translate(564.119 150.161)"/><path d="m304.18 0v18.574c.001 5.9069-4.788 10.6956-10.694 10.6948h-282.7912c-5.90689.0008-10.69554568-4.7879-10.69479991-10.6948v-18.574z" fill="#3f3d56" transform="translate(413.824 328.288)"/><circle cx="5.458728pt" cy="5.458728pt" fill="#f2f2f2" r="5.458728pt" transform="translate(559.091 336.189)"/><path d="m193.21 12.928v3.592h-193.21v-2.873l.266-.719 4.762-12.928h184.232z" fill="#3f3d56" transform="translate(362.071 402.268)"/><path d="m54.2425 12.3657c-.3519 1.5047-1.6807 3.0921-4.683 4.5932-10.7738 5.3869-32.6805-1.4365-32.6805-1.4365s-16.879-2.873-16.879-10.41468c.473933-.32453.968142-.61841 1.4796-.87984 4.52961-2.3964 19.5483-8.3097 46.1781.25038 1.9618.61581 3.7142 1.76417 5.0618 3.31716 1.2112 1.19104 1.7776 2.89078 1.523 4.57028z" fill="#3f3d56" transform="translate(575.393 399.315)"/><path d="m52.7629 12.3657c-13.1871 5.0529-24.9413 5.43-37.0044-2.94846-6.08362-4.22333-11.61059-5.2684-15.7585-5.18936 4.52961-2.3964 19.5483-8.3097 46.1781.25038 1.9618.61581 3.7142 1.76417 5.0618 3.31716 1.2112 1.19105 1.7776 2.89078 1.523 4.57028z" opacity=".1" transform="translate(576.872 399.315)"/><ellipse cx="3.73492pt" cy="1.149208pt" fill="#f2f2f2" rx="3.73492pt" ry="1.149208pt" transform="translate(608.432 405.859)"/><path d="m193.21 0v3.592h-193.21v-2.873l.266-.719z" opacity=".1" transform="translate(362.071 415.196)"/><circle cx="30.597344pt" cy="30.597344pt" fill="#ffb9b9" r="30.597344pt" transform="translate(356.392 117.648)"/><path d="m0 5.03245v60.38945h62.4025s-8.052-50.3245-4.026-65.4219z" fill="#ffb9b9" transform="translate(366.457 169.985)"/><path d="m202.305 50.0095s-59.383-29.1882-59.383-31.2012-6.039-15.09738-10.065-15.09738-38.2468-11.07141-57.3701 5.03245l-2.013 13.08443-73.4739 48.3115 20.1298 73.4737s13.0844 14.091 9.0584 24.156c-4.0259 10.065 3.0195 61.396 3.0195 61.396l158.0193-5.032v-68.442s5.032-16.104 8.052-21.136c3.019-5.033 0-20.13 0-20.13l24.156-30.1948s-3.02-28.1817-20.13-34.2207z" fill="#d0cde1" transform="translate(287.951 206.534)"/><path d="m18.8627 24.659 4.5292-24.659s-26.16881 113.734-23.149346 126.818c3.019476 13.084 25.162246 33.214 28.181746 34.221 3.0195 1.006 31.2013-86.5587 31.2013-86.5587z" opacity=".1" transform="translate(271.605 276.674)"/><path d="m40.5022 0-17.1103 3.01947s-26.16881 113.73353-23.149346 126.81753c3.019476 13.085 25.162246 33.215 28.181746 34.221 3.0195 1.007 31.2013-86.5582 31.2013-86.5582z" fill="#d0cde1" transform="translate(264.559 273.654)"/><path d="m27.6785 16.6071 8.5552-16.6071s12.0779 113.734 4.026 124.805-39.90298 15.214-39.90298 15.214l-.35672-82.6489z" opacity=".1" transform="translate(468.113 290.764)"/><path d="m23.1493 0 13.0844 13.0844s12.0779 113.7336 4.026 124.8046c-8.0519 11.072-39.90298 15.215-39.90298 15.215l-.35672-82.6495z" fill="#d0cde1" transform="translate(474.152 277.68)"/><path d="m35.1471 2.89809s-29.18823-11.07141-34.220679 10.06491c-5.032451 21.1363 12.077879 115.747 12.077879 115.747s11.0714 71.46 18.1169 73.473c7.0454 2.013 38.2466 3.02 43.2791-6.039 5.0324-9.058-15.0974-101.6552-15.0974-101.6552l116.7531-2.013s-7.046 80.5192-11.071 87.5652c-4.026 7.045-4.026 31.201 0 31.201s48.311-2.013 51.331-8.052c3.019-6.039 20.129-141.9154 20.129-141.9154s14.091-47.3051-2.013-44.2857c-16.103 3.0195-199.2849-14.09081-199.2849-14.09081z" fill="#3f3d56" transform="translate(266.895 447.898)"/><g fill="#2f2e41"><path d="m39.2532 3.13131s10.0649-7.04544 15.0973 0c5.0325 7.04539 7.0455 15.09739-15.0973 27.17529s-39.2532 9.0584-39.2532 7.0454v-29.18823z" transform="translate(434.899 643.931)"/><path d="m18.3733 3.13131s-10.06489-7.04544-15.09735 0c-5.03246 7.04539-7.04546 15.09739 15.09735 27.17519 22.1429 12.0779 39.2532 9.0585 39.2532 7.0455v-29.18823z" transform="translate(281.656 640.912)"/><path d="m43.4891.0195022c-3.8096-.1323432-7.6126.4097008-11.2336 1.6011178-2.8078 1.12869-5.4899 2.54776-8.0027 4.2341l-16.88535 10.50018c-2.93137 1.2686-4.81172 4.1762-4.76623 7.37l-2.109995 15.8018c-.53248 3.9878-1.02331 8.2524.761795 11.8578 1.49 3.0093 4.3314 5.0686 6.66782 7.4804 3.73896 3.8758 6.25546 8.7657 7.23646 14.0609 1.208 6.5975.4346 14.5425 5.6557 18.7529 2.827 2.2797 6.6803 2.7109 10.3058 2.9229 9.9139.5788 19.8605.1959 29.7006-1.1432 1.5645-.1171 3.09-.5446 4.4875-1.2574 1.775-1.0499 2.8925-2.9031 3.9369-4.6813 3.7707-6.4198 7.657-13.249 7.6161-20.694-.0203-3.6832-.9627-7.6389.8058-10.8698.9346-1.3732 1.9488-2.6905 3.0376-3.945 2.1896-3.0768 2.6159-7.03 2.9727-10.7897 1.1398-12.0087-.0517-21.1472-8.9022-29.6063-8.2618-7.89649-20.0173-11.5227178-31.2847-11.5953978z" transform="translate(351.398 107.65)"/><path d="m33.591 0-33.591 170.755h16.795l32.192-167.955z" transform="translate(267.346 569.703)"/><path d="m0 5.599 20.995 195.948h13.996l-12.597-201.547z" transform="translate(408.708 578.101)"/><path d="m0 2.799 29.392 130.166h13.996l-27.992-132.965z" transform="translate(466.093 575.302)"/><path d="m4.199 0-4.199 103.573h11.197l8.398-103.573z" transform="translate(349.924 578.101)"/></g><path d="m3.86766 155.825s-22.39396-149.75995 40.58924-153.95883c62.9831-4.19888 152.5591 0 152.5591 0s51.787-4.19889 36.391 153.95883c0 0 13.996 46.188-111.971 41.989-125.9661-4.199-117.56834-41.989-117.56834-41.989z" fill="#6c63ff" transform="translate(273.275 395.683)"/><path d="m69.3527 59.3381c0 26.1153-15.5251 35.2338-34.6764 35.2338-19.1512 0-34.6763-9.1185-34.6763-35.2338s34.6763-59.3381 34.6763-59.3381 34.6764 33.2228 34.6764 59.3381z" fill="#2b8467" transform="translate(781.647 553.327)"/><path d="m14.293 68.721 14.779-27.039-14.724 23.61.16-9.827 10.186-19.563-10.144 16.962.287-17.675 10.908-15.574-10.863 12.795.18-32.41-1.079 41.067-11.046-16.907 10.912 20.372-1.033 19.74-.031-.524-12.785-17.863 12.746 19.714-.129 2.469-.023.037.011.203-2.622 26.342h3.503l.42-2.128 12.715-19.667-12.684 17.722z" fill="#3f3d56" transform="translate(801.123 553.327)"/><path d="m52.025 60.386h-41.341l-10.684-60.386h60.386z" fill="#2f2e41" transform="translate(786.445 644.163)"/><rect fill="#3f3d56" height="80.662072pt" width="68.8pt" x="145" y="296.3"/><rect fill="#f2f2f2" height="55.629016pt" width="47.448272pt" x="158.345" y="311.946"/><path d="m97.7028 0-18.3315 32.0781-18.3315-32.0781h-61.0398l79.3713 138.904 79.3717-138.904z" fill="#4dba87" transform="translate(485.721 165.082)"/><path d="m66.4819 0-18.4782 31.4933-18.4782-31.4933h-29.5255l48.0037 81.8196 48.0038-81.8196z" fill="#435466" transform="translate(517.678 165.082)"/><path d="m0 0h44.5455v44.5387h-44.5455z" fill="#f7df1e" transform="translate(166.25 325.593)"/><path d="m0 16.9713 3.4112-2.0577c.65887 1.1631 1.25676 2.1472 2.69306 2.1472 1.37701 0 2.24421-.5368 2.24421-2.6232v-14.194525h4.18863v14.251925c0 4.323-2.54062 6.2913-6.25331 6.2913-3.35022 0-5.294643-1.7303-6.28209626-3.8166m14.81010626-.4474 3.4095-1.9682c.8977 1.4618 2.0647 2.532 4.1294 2.532 1.736 0 2.8421-.8642 2.8421-2.0577 0-1.4314-1.1365-1.9378-3.0488-2.7734l-1.0467-.4473c-3.0217-1.2812-5.0271-2.89158-5.0271-6.29125 0-3.13128 2.3933-5.51645 6.1331-5.51645 2.6626 0 4.5731.925034 5.9535 3.3389l-3.2604 2.08808c-.7182-1.28289-1.4956-1.7893-2.6931-1.7893-1.2263 0-2.0054.7748-2.0054 1.7893 0 1.25251.7774 1.75892 2.5728 2.53203l1.0467.44732c3.5569 1.51922 5.5657 3.07047 5.5657 6.55967 0 3.7575-2.9624 5.8152-6.9444 5.8152-3.8956 0-6.4023-1.8568-7.6218-4.2639" transform="translate(177.991 345.842)"/></svg>

<?xml version="1.0" standalone="no"?>
<!DOCTYPE svg PUBLIC "-//W3C//DTD SVG 20010904//EN" "http://www.w3.org/TR/2001/REC-SVG-20010904/DTD/svg10.dtd">
<!-- Created using Karbon, part of Calligra: http://www.calligra.org/karbon -->
<svg xmlns="http://www.w3.org/2000/svg" xmlns:xlink="http://www.w3.org/1999/xlink" width="690.4pt" height="661.371pt">
<defs/>
<g id="layer0">
  <path id="shape1" transform="translate(7.10543e-14, 668.632)" fill="#3f3d56" d="M862 34.082C862 77.4363 672.811 158.082 434.5 158.082C196.189 158.082 0 82.4363 0 39.082C0 -4.2724 196.189 1.08196 434.5 1.08196C672.811 1.08196 862 -9.27239 862 34.082Z"/>
  <path id="shape2" transform="translate(7.10543e-14, 668.632)" fill="#000000" opacity="0.10000000000" d="M862 34.082C862 77.4363 672.811 158.082 434.5 158.082C196.189 158.082 0 82.4363 0 39.082C0 -4.2724 196.189 1.08196 434.5 1.08196C672.811 1.08196 862 -9.27239 862 34.082Z"/>
  <ellipse id="shape3" transform="translate(0, 628.714)" rx="345.20000000000pt" ry="62.80000000000pt" cx="345.20000000000pt" cy="62.80000000000pt" fill="#3f3d56"/>
  <path id="shape4" transform="translate(594.859, 440.238)" fill="#2f2e41" d="M0 0L0 209.944L35.117 267.175L37.79 271.528L176.353 271.528L179.152 0Z"/>
  <path id="shape5" transform="translate(594.859, 440.238)" fill="#000000" opacity="0.10000000000" d="M0 0L0 209.944L35.117 267.175L37.272 0Z"/>
  <path id="shape6" transform="translate(81.195, 434.639)" fill="#2f2e41" d="M179.153 0L179.153 209.944L144.036 267.175L141.363 271.528L2.799 271.528L0 0Z"/>
  <path id="shape7" transform="translate(223.075, 434.639)" fill="#000000" opacity="0.10000000000" d="M37.273 0L37.273 209.944L2.156 267.175L0 0Z"/>
  <path id="shape8" transform="translate(63, 388.452)" fill="#2f2e41" d="M753 41.988L753 54.585L0 54.585L0 36.39L69.981 0L691.416 0Z"/>
  <path id="shape9" transform="translate(63, 424.842)" fill="#000000" opacity="0.10000000000" d="M753 5.598L753 18.195L0 18.195L0 0Z"/>
  <path id="shape10" transform="translate(123.184, 483.626)" fill="#000000" opacity="0.10000000000" d="M47.587 9.798L13.996 9.798L0 0L62.983 0Z"/>
  <path id="shape11" transform="translate(123.184, 524.215)" fill="#000000" opacity="0.10000000000" d="M47.587 9.798L13.996 9.798L0 0L62.983 0Z"/>
  <path id="shape12" transform="translate(123.184, 581.6)" fill="#000000" opacity="0.10000000000" d="M47.587 9.798L13.996 9.798L0 0L62.983 0Z"/>
  <path id="shape13" transform="translate(123.184, 638.985)" fill="#000000" opacity="0.10000000000" d="M47.587 9.797L13.996 9.797L0 0L62.983 0Z"/>
  <path id="shape14" transform="translate(669.039, 489.225)" fill="#000000" opacity="0.10000000000" d="M15.396 9.797L48.987 9.797L62.983 0L0 0Z"/>
  <path id="shape15" transform="translate(669.039, 529.814)" fill="#000000" opacity="0.10000000000" d="M15.396 9.797L48.987 9.797L62.983 0L0 0Z"/>
  <path id="shape16" transform="translate(669.039, 587.199)" fill="#000000" opacity="0.10000000000" d="M15.396 9.797L48.987 9.797L62.983 0L0 0Z"/>
  <path id="shape17" transform="translate(669.039, 644.583)" fill="#000000" opacity="0.10000000000" d="M15.396 9.798L48.987 9.798L62.983 0L0 0Z"/>
  <path id="shape18" transform="translate(515.265, 351.631)" fill="#3f3d56" d="M17.2509 1.79558L12.5822 31.6031C12.5822 31.6031 -10.4019 43.8134 5.75874 44.1726C21.9195 44.5317 98.0543 44.1726 98.0543 44.1726C98.0543 44.1726 112.779 44.1726 89.4353 31.244L84.7667 0Z"/>
  <path id="shape19" transform="translate(515.27, 351.631)" fill="#000000" opacity="0.10000000000" d="M2.50284 43.8491C5.64165 41.3115 9.01503 39.0786 12.5773 37.1806L17.2459 7.37307L84.7617 7.43658L89.4304 36.8215C93.2664 38.8013 96.8826 41.1808 100.219 43.9203C103.217 43.2363 106.493 40.6942 89.4304 31.244L84.7617 0L17.2459 1.79564L12.5772 31.6031C12.5772 31.6031 -6.73614 41.8646 2.50284 43.8491Z"/>
  <rect id="shape20" transform="translate(413.824, 145.672)" fill="#3f3d56" width="243.34425600000pt" height="169.50780000000pt" rx="8.55584000000pt" ry="8.55584000000pt"/>
  <rect id="shape21" transform="translate(424.059, 156.984)" fill="#f2f2f2" width="226.96807200000pt" height="126.98720000000pt"/>
  <circle id="shape22" transform="translate(564.119, 150.161)" r="1.43650400000pt" cx="1.43650400000pt" cy="1.43650400000pt" fill="#f2f2f2"/>
  <path id="shape23" transform="translate(413.824, 328.288)" fill="#3f3d56" d="M304.18 0L304.18 18.574C304.181 24.4809 299.392 29.2696 293.486 29.2688L10.6948 29.2688C4.78791 29.2696 -0.000745676 24.4809 8.70945e-08 18.574L8.70945e-08 0Z"/>
  <circle id="shape24" transform="translate(559.091, 336.189)" r="5.45872800000pt" cx="5.45872800000pt" cy="5.45872800000pt" fill="#f2f2f2"/>
  <path id="shape25" transform="translate(362.071, 402.268)" fill="#3f3d56" d="M193.21 12.928L193.21 16.52L0 16.52L0 13.647L0.266 12.928L5.028 0L189.26 0Z"/>
  <path id="shape26" transform="translate(575.393, 399.315)" fill="#3f3d56" d="M54.2425 12.3657C53.8906 13.8704 52.5618 15.4578 49.5595 16.9589C38.7857 22.3458 16.879 15.5224 16.879 15.5224C16.879 15.5224 0 12.6494 0 5.10772C0.473933 4.78319 0.968142 4.48931 1.4796 4.22788C6.00921 1.83148 21.0279 -4.08182 47.6577 4.47826C49.6195 5.09407 51.3719 6.24243 52.7195 7.79542C53.9307 8.98646 54.4971 10.6862 54.2425 12.3657Z"/>
  <path id="shape27" transform="translate(576.872, 399.315)" fill="#000000" opacity="0.10000000000" d="M52.7629 12.3657C39.5758 17.4186 27.8216 17.7957 15.7585 9.41724C9.67488 5.19391 4.14791 4.14884 0 4.22788C4.52961 1.83148 19.5483 -4.08182 46.1781 4.47826C48.1399 5.09407 49.8923 6.24243 51.2399 7.79542C52.4511 8.98647 53.0175 10.6862 52.7629 12.3657Z"/>
  <ellipse id="shape28" transform="translate(608.432, 405.859)" rx="3.73492000000pt" ry="1.14920800000pt" cx="3.73492000000pt" cy="1.14920800000pt" fill="#f2f2f2"/>
  <path id="shape29" transform="translate(362.071, 415.196)" fill="#000000" opacity="0.10000000000" d="M193.21 0L193.21 3.592L0 3.592L0 0.719L0.266 0Z"/>
  <circle id="shape30" transform="translate(356.392, 117.648)" r="30.59734400000pt" cx="30.59734400000pt" cy="30.59734400000pt" fill="#ffb9b9"/>
  <path id="shape31" transform="translate(366.457, 169.985)" fill="#ffb9b9" d="M0 5.03245L0 65.4219L62.4025 65.4219C62.4025 65.4219 54.3505 15.0974 58.3765 0Z"/>
  <path id="shape32" transform="translate(287.951, 206.534)" fill="#d0cde1" d="M202.305 50.0095C202.305 50.0095 142.922 20.8213 142.922 18.8083C142.922 16.7953 136.883 3.71092 132.857 3.71092C128.831 3.71092 94.6102 -7.36049 75.4869 8.74337L73.4739 21.8278L0 70.1393L20.1298 143.613C20.1298 143.613 33.2142 157.704 29.1882 167.769C25.1623 177.834 32.2077 229.165 32.2077 229.165L190.227 224.133L190.227 155.691C190.227 155.691 195.259 139.587 198.279 134.555C201.298 129.522 198.279 114.425 198.279 114.425L222.435 84.2302C222.435 84.2302 219.415 56.0485 202.305 50.0095Z"/>
  <path id="shape33" transform="translate(271.605, 276.674)" fill="#000000" opacity="0.10000000000" d="M18.8627 24.659L23.3919 0C23.3919 0 -2.77691 113.734 0.242554 126.818C3.26203 139.902 25.4048 160.032 28.4243 161.039C31.4438 162.045 59.6256 74.4803 59.6256 74.4803Z"/>
  <path id="shape34" transform="translate(264.559, 273.654)" fill="#d0cde1" d="M40.5022 0L23.3919 3.01947C23.3919 3.01947 -2.77691 116.753 0.242554 129.837C3.26203 142.922 25.4048 163.052 28.4243 164.058C31.4438 165.065 59.6256 77.4998 59.6256 77.4998Z"/>
  <path id="shape35" transform="translate(468.113, 290.764)" fill="#000000" opacity="0.10000000000" d="M27.6785 16.6071L36.2337 0C36.2337 0 48.3116 113.734 40.2597 124.805C32.2078 135.876 0.35672 140.019 0.35672 140.019L0 57.3701Z"/>
  <path id="shape36" transform="translate(474.152, 277.68)" fill="#d0cde1" d="M23.1493 0L36.2337 13.0844C36.2337 13.0844 48.3116 126.818 40.2597 137.889C32.2078 148.961 0.35672 153.104 0.35672 153.104L0 70.4545Z"/>
  <path id="shape37" transform="translate(266.895, 447.898)" fill="#3f3d56" d="M35.1471 2.89809C35.1471 2.89809 5.95887 -8.17332 0.926421 12.963C-4.10603 34.0993 13.0043 128.71 13.0043 128.71C13.0043 128.71 24.0757 200.17 31.1212 202.183C38.1666 204.196 69.3678 205.203 74.4003 196.144C79.4327 187.086 59.3029 94.4888 59.3029 94.4888L176.056 92.4758C176.056 92.4758 169.01 172.995 164.985 180.041C160.959 187.086 160.959 211.242 164.985 211.242C169.011 211.242 213.296 209.229 216.316 203.19C219.335 197.151 236.445 61.2746 236.445 61.2746C236.445 61.2746 250.536 13.9695 234.432 16.9889C218.329 20.0084 35.1471 2.89809 35.1471 2.89809Z"/>
  <path id="shape38" transform="translate(434.899, 643.931)" fill="#2f2e41" d="M39.2532 3.13131C39.2532 3.13131 49.3181 -3.91413 54.3505 3.13131C59.383 10.1767 61.396 18.2287 39.2532 30.3066C17.1104 42.3845 0 39.365 0 37.352L0 8.16377Z"/>
  <path id="shape39" transform="translate(281.656, 640.912)" fill="#2f2e41" d="M18.3733 3.13131C18.3733 3.13131 8.30841 -3.91413 3.27595 3.13131C-1.75651 10.1767 -3.76951 18.2287 18.3733 30.3065C40.5162 42.3844 57.6265 39.365 57.6265 37.352L57.6265 8.16377Z"/>
  <path id="shape40" transform="translate(351.398, 107.65)" fill="#2f2e41" d="M43.4891 0.0195022C39.6795 -0.112841 35.8765 0.429203 32.2555 1.62062C29.4477 2.74931 26.7656 4.16838 24.2528 5.85472L7.36745 16.3549C4.43608 17.6235 2.55573 20.5311 2.60122 23.7249L0.491225 39.5267C-0.041255 43.5145 -0.532085 47.7791 1.25302 51.3845C2.74302 54.3938 5.58442 56.4531 7.92084 58.8649C11.6598 62.7407 14.1763 67.6306 15.1573 72.9258C16.3653 79.5233 15.5919 87.4683 20.813 91.6787C23.64 93.9584 27.4933 94.3896 31.1188 94.6016C41.0327 95.1804 50.9793 94.7975 60.8194 93.4584C62.3839 93.3413 63.9094 92.9138 65.3069 92.201C67.0819 91.1511 68.1994 89.2979 69.2438 87.5197C73.0145 81.0999 76.9008 74.2707 76.8599 66.8257C76.8396 63.1425 75.8972 59.1868 77.6657 55.9559C78.6003 54.5827 79.6145 53.2654 80.7033 52.0109C82.8929 48.9341 83.3192 44.9809 83.676 41.2212C84.8158 29.2125 83.6243 20.074 74.7738 11.6149C66.512 3.71841 54.7565 0.0921822 43.4891 0.0195022Z"/>
  <path id="shape41" transform="translate(267.346, 569.703)" fill="#2f2e41" d="M33.591 0L0 170.755L16.795 170.755L48.987 2.8Z"/>
  <path id="shape42" transform="translate(408.708, 578.101)" fill="#2f2e41" d="M0 5.599L20.995 201.547L34.991 201.547L22.394 0Z"/>
  <path id="shape43" transform="translate(466.093, 575.302)" fill="#2f2e41" d="M0 2.799L29.392 132.965L43.388 132.965L15.396 0Z"/>
  <path id="shape44" transform="translate(349.924, 578.101)" fill="#2f2e41" d="M4.199 0L0 103.573L11.197 103.573L19.595 0Z"/>
  <path id="shape45" transform="translate(273.275, 395.683)" fill="#6c63ff" d="M3.86766 155.825C3.86766 155.825 -18.5263 6.06505 44.4569 1.86617C107.44 -2.33271 197.016 1.86617 197.016 1.86617C197.016 1.86617 248.803 -2.33272 233.407 155.825C233.407 155.825 247.403 202.013 121.436 197.814C-4.5301 193.615 3.86766 155.825 3.86766 155.825Z"/>
  <path id="shape46" transform="translate(781.647, 553.327)" fill="#2b8467" d="M69.3527 59.3381C69.3527 85.4534 53.8276 94.5719 34.6763 94.5719C15.5251 94.5719 0 85.4534 0 59.3381C0 33.2228 34.6763 0 34.6763 0C34.6763 0 69.3527 33.2228 69.3527 59.3381Z"/>
  <path id="shape47" transform="translate(801.123, 553.327)" fill="#3f3d56" d="M14.293 68.721L29.072 41.682L14.348 65.292L14.508 55.465L24.694 35.902L14.55 52.864L14.837 35.189L25.745 19.615L14.882 32.41L15.062 0L13.983 41.067L2.937 24.16L13.849 44.532L12.816 64.272L12.785 63.748L0 45.885L12.746 65.599L12.617 68.068L12.594 68.105L12.605 68.308L9.983 94.65L13.486 94.65L13.906 92.522L26.621 72.855L13.937 90.577Z"/>
  <path id="shape48" transform="translate(786.445, 644.163)" fill="#2f2e41" d="M52.025 60.386L10.684 60.386L0 0L60.386 0Z"/>
  <rect id="shape49" transform="translate(145, 296.3)" fill="#3f3d56" width="68.80000000000pt" height="80.66207200000pt"/>
  <rect id="shape50" transform="translate(158.345, 311.946)" fill="#f2f2f2" width="47.44827200000pt" height="55.62901600000pt"/>
  <path id="shape51" transform="translate(485.721, 165.082)" fill="#4dba87" d="M97.7028 0L79.3713 32.0781L61.0398 0L0 0L79.3713 138.904L158.743 0Z"/>
  <path id="shape52" transform="translate(517.678, 165.082)" fill="#435466" d="M66.4819 0L48.0037 31.4933L29.5255 0L0 0L48.0037 81.8196L96.0075 0Z"/>
  <path id="shape53" transform="translate(166.25, 325.593)" fill="#f7df1e" d="M0 0L44.5455 0L44.5455 44.5387L0 44.5387Z"/>
  <path id="shape54" transform="translate(177.991, 345.842)" fill="#000000" d="M0 16.9713L3.4112 14.9136C4.07007 16.0767 4.66796 17.0608 6.10426 17.0608C7.48127 17.0608 8.34847 16.524 8.34847 14.4376L8.34847 0.243075L12.5371 0.243075L12.5371 14.495C12.5371 18.818 9.99648 20.7863 6.28379 20.7863C2.93357 20.7863 0.989147 19.056 0.00169374 16.9697M14.8118 16.5223L18.2213 14.5541C19.119 16.0159 20.286 17.0861 22.3507 17.0861C24.0867 17.0861 25.1928 16.2219 25.1928 15.0284C25.1928 13.597 24.0563 13.0906 22.144 12.255L21.0973 11.8077C18.0756 10.5265 16.0702 8.91612 16.0702 5.51645C16.0702 2.38517 18.4635 0 22.2033 0C24.8659 0 26.7764 0.925034 28.1568 3.3389L24.8964 5.42698C24.1782 4.14409 23.4008 3.63768 22.2033 3.63768C20.977 3.63768 20.1979 4.41248 20.1979 5.42698C20.1979 6.67949 20.9753 7.1859 22.7707 7.95901L23.8174 8.40633C27.3743 9.92555 29.3831 11.4768 29.3831 14.966C29.3831 18.7235 26.4207 20.7812 22.4387 20.7812C18.5431 20.7812 16.0364 18.9244 14.8169 16.5173"/>
 </g>
</svg>
